dist/images/css.svg

<svg width="26" height="28" viewBox="0 0 26 28" fill="none" xmlns="http://www.w3.org/2000/svg">
<path d="M0 0L2.36786 25.2L13 28L23.6284 25.2018L26 0H0ZM20.9374 8.24075L20.6384 11.4065L19.7377 20.8985L13 22.652L12.9963 22.6537L6.26414 20.8967L5.79243 15.9337H9.09071L9.33586 18.5097L12.9963 19.4408L13 19.4373L16.6641 18.5062L17.1637 14.217L5.63457 14.2467L5.30771 11.312L17.4404 11.179L17.6856 8.03775L4.98271 8.071L4.76914 5.152H21.2309L20.9374 8.24075Z" fill="white"/>
</svg>

<svg width="26" height="28" fill="none" xmlns="http://www.w3.org/2000/svg"><path d="M0 0l2.368 25.2L13 28l10.628-2.798L26 0H0zm20.937 8.24l-.299 3.166-.9 9.492L13 22.652l-.004.002-6.732-1.757-.472-4.963h3.299l.245 2.576 3.66.93.004-.003 3.664-.93.5-4.29-11.53.03-.326-2.935 12.132-.133.246-3.141-12.703.033-.214-2.919h16.462l-.294 3.089z" fill="#fff"/></svg>
